austria/municipalities/70826.svg

<?xml version="1.0" encoding="UTF-8"?>
<!DOCTYPE svg PUBLIC "-//W3C//DTD SVG 1.1//EN" "http://www.w3.org/Graphics/SVG/1.1/DTD/svg11.dtd">
<svg xmlns="http://www.w3.org/2000/svg" version="1.1" width="166px" height="192px" style="shape-rendering:geometricPrecision; text-rendering:geometricPrecision; image-rendering:optimizeQuality; fill-rule:evenodd; clip-rule:evenodd" xmlns:xlink="http://www.w3.org/1999/xlink">
<g><path style="opacity:1" fill="#040301" d="M -0.5,-0.5 C 54.8333,-0.5 110.167,-0.5 165.5,-0.5C 165.5,39.1667 165.5,78.8333 165.5,118.5C 157.529,159.138 133.196,183.471 92.5,191.5C 85.5,191.5 78.5,191.5 71.5,191.5C 30.4846,182.818 6.4846,157.818 -0.5,116.5C -0.5,77.5 -0.5,38.5 -0.5,-0.5 Z"/></g>
<g><path style="opacity:1" fill="#e6a41c" d="M 81.5,37.5 C 81.8235,44.0221 81.4902,50.3554 80.5,56.5C 78.8599,55.6799 77.1932,54.8466 75.5,54C 66.8397,53.5002 58.1731,53.3336 49.5,53.5C 49.3335,63.1724 49.5002,72.8391 50,82.5C 51.0395,84.7463 52.2062,86.913 53.5,89C 46.8333,89.6667 40.1667,89.6667 33.5,89C 36.0244,87.117 37.3577,84.617 37.5,81.5C 38.4938,72.0144 38.8271,62.3478 38.5,52.5C 30.6484,52.1746 22.9818,52.508 15.5,53.5C 10.8762,53.951 7.04286,55.951 4,59.5C 3.33333,51.1667 3.33333,42.8333 4,34.5C 6.70332,37.9339 10.2033,39.9339 14.5,40.5C 22.3159,41.4924 30.3159,41.8257 38.5,41.5C 38.8274,31.3194 38.494,21.3194 37.5,11.5C 37.2024,8.73538 36.2024,6.23538 34.5,4C 40.8333,3.33333 47.1667,3.33333 53.5,4C 51.9315,6.3041 50.7648,8.8041 50,11.5C 49.5002,21.4944 49.3335,31.4944 49.5,41.5C 57.1739,41.6664 64.8406,41.4997 72.5,41C 75.7385,40.3782 78.7385,39.2116 81.5,37.5 Z"/></g>
<g><path style="opacity:1" fill="#e6a51c" d="M 83.5,3.5 C 109.5,3.5 135.5,3.5 161.5,3.5C 161.5,32.1667 161.5,60.8333 161.5,89.5C 135.5,89.5 109.5,89.5 83.5,89.5C 83.5,60.8333 83.5,32.1667 83.5,3.5 Z"/></g>
<g><path style="opacity:1" fill="#211b11" d="M 37.5,11.5 C 38.494,21.3194 38.8274,31.3194 38.5,41.5C 30.3159,41.8257 22.3159,41.4924 14.5,40.5C 22.1667,40.5 29.8333,40.5 37.5,40.5C 37.5,30.8333 37.5,21.1667 37.5,11.5 Z"/></g>
<g><path style="opacity:1" fill="#070502" d="M 112.5,16.5 C 115.744,18.0713 118.411,20.4046 120.5,23.5C 117.833,26.5 115.167,29.5 112.5,32.5C 115.864,35.7005 119.364,38.7005 123,41.5C 125.994,38.6723 128.827,35.6723 131.5,32.5C 129.328,29.8283 126.994,27.3283 124.5,25C 126.681,21.1377 129.681,18.471 133.5,17C 135.875,19.1759 138.208,21.3426 140.5,23.5C 141.258,22.1886 142.258,21.6886 143.5,22C 145.5,24 147.5,26 149.5,28C 147.007,29.5826 147.174,31.0826 150,32.5C 150.835,37.3035 151.835,41.9702 153,46.5C 151.867,48.2112 150.367,48.7112 148.5,48C 145.62,44.7829 142.453,41.9495 139,39.5C 136.052,42.2843 133.219,45.2843 130.5,48.5C 136.125,53.6242 141.625,58.9575 147,64.5C 147.178,70.1525 144.678,71.9858 139.5,70C 134.615,64.6123 129.282,59.7789 123.5,55.5C 118.015,60.485 112.681,65.6516 107.5,71C 99.8591,70.4181 98.6924,67.2515 104,61.5C 108.167,57.3333 112.333,53.1667 116.5,49C 113.299,45.4636 109.799,42.2969 106,39.5C 103.333,42.1667 100.667,44.8333 98,47.5C 94.6093,45.6112 92.1093,42.9445 90.5,39.5C 91.8964,36.376 93.5631,33.376 95.5,30.5C 95.0233,29.5224 94.3567,28.6891 93.5,28C 95.3513,26.3163 97.018,24.4829 98.5,22.5C 103.434,21.7151 108.101,19.7151 112.5,16.5 Z"/></g>
<g><path style="opacity:1" fill="#826122" d="M 80.5,56.5 C 81.4902,50.3554 81.8235,44.0221 81.5,37.5C 82.2087,39.9036 82.542,43.0703 82.5,47C 82.1667,50.5 81.8333,54 81.5,57.5C 80.8933,57.3764 80.56,57.0431 80.5,56.5 Z"/></g>
<g><path style="opacity:1" fill="#533f1b" d="M 15.5,53.5 C 22.9818,52.508 30.6484,52.1746 38.5,52.5C 38.8271,62.3478 38.4938,72.0144 37.5,81.5C 37.5,72.1667 37.5,62.8333 37.5,53.5C 30.1667,53.5 22.8333,53.5 15.5,53.5 Z"/></g>
<g><path style="opacity:1" fill="#826122" d="M 130.5,91.5 C 124.31,91.1771 118.31,91.5104 112.5,92.5C 111.957,92.44 111.624,92.1067 111.5,91.5C 114.833,91.1667 118.167,90.8333 121.5,90.5C 125.265,90.4553 128.265,90.7886 130.5,91.5 Z"/></g>
<g><path style="opacity:1" fill="#e4a31c" d="M 81.5,91.5 C 81.5,123.5 81.5,155.5 81.5,187.5C 42.775,185.217 17.6083,165.55 6,128.5C 3.85028,115.93 3.01695,103.264 3.5,90.5C 29.672,90.1689 55.672,90.5022 81.5,91.5 Z"/></g>
<g><path style="opacity:1" fill="#e4a31c" d="M 130.5,91.5 C 129.062,94.7157 127.895,98.049 127,101.5C 126.5,110.827 126.334,120.161 126.5,129.5C 134.84,129.666 143.173,129.5 151.5,129C 155.066,128.3 157.9,126.467 160,123.5C 159.106,129.689 157.273,135.689 154.5,141.5C 152.674,141.92 150.674,141.92 148.5,141.5C 141.352,140.508 134.019,140.175 126.5,140.5C 126.173,149.682 126.507,158.682 127.5,167.5C 127.986,169.807 127.986,171.973 127.5,174C 122.113,177.53 116.446,180.197 110.5,182C 112.782,178.488 114.282,174.655 115,170.5C 115.5,160.839 115.666,151.172 115.5,141.5C 106.827,141.334 98.1603,141.5 89.5,142C 87.3083,142.926 85.3083,144.093 83.5,145.5C 83.176,138.646 83.5093,131.979 84.5,125.5C 86.5274,127.18 88.8608,128.347 91.5,129C 99.4931,129.5 107.493,129.666 115.5,129.5C 115.666,119.161 115.5,108.828 115,98.5C 114.427,96.3594 113.594,94.3594 112.5,92.5C 118.31,91.5104 124.31,91.1771 130.5,91.5 Z"/></g>
<g><path style="opacity:1" fill="#070502" d="M 35.5,100.5 C 38.7441,102.071 41.4108,104.405 43.5,107.5C 41.517,109.984 39.3504,112.317 37,114.5C 36.3333,115.5 36.3333,116.5 37,117.5C 39.6824,120.35 42.5157,123.016 45.5,125.5C 48.8333,122.833 51.8333,119.833 54.5,116.5C 52.1667,113.833 49.8333,111.167 47.5,108.5C 49.6499,105.849 51.9832,103.349 54.5,101C 58.3659,101.821 61.5325,103.987 64,107.5C 64.4226,106.044 65.2559,105.544 66.5,106C 68.5,108 70.5,110 72.5,112C 69.972,113.316 69.972,114.483 72.5,115.5C 79.3495,134.5 75.8495,136.833 62,122.5C 58.6039,125.393 55.7706,128.726 53.5,132.5C 59.1254,137.624 64.6254,142.958 70,148.5C 70.6213,153.542 68.4546,155.376 63.5,154C 57.9804,148.979 52.3137,144.146 46.5,139.5C 41.0147,144.485 35.6813,149.652 30.5,155C 26.8008,155.823 24.4675,154.323 23.5,150.5C 28.2801,144.217 33.6135,138.384 39.5,133C 36.2988,129.464 32.7988,126.297 29,123.5C 26.3333,126.167 23.6667,128.833 21,131.5C 18.961,129.126 16.6277,127.126 14,125.5C 14.3209,121.502 15.8209,117.835 18.5,114.5C 18.0233,113.522 17.3567,112.689 16.5,112C 18.3513,110.316 20.018,108.483 21.5,106.5C 26.4868,105.685 31.1535,103.685 35.5,100.5 Z"/></g>
<g><path style="opacity:1" fill="#fdfdfd" d="M -0.5,116.5 C 6.4846,157.818 30.4846,182.818 71.5,191.5C 47.5,191.5 23.5,191.5 -0.5,191.5C -0.5,166.5 -0.5,141.5 -0.5,116.5 Z"/></g>
<g><path style="opacity:1" fill="#fcfcfc" d="M 165.5,118.5 C 165.5,142.833 165.5,167.167 165.5,191.5C 141.167,191.5 116.833,191.5 92.5,191.5C 133.196,183.471 157.529,159.138 165.5,118.5 Z"/></g>
<g><path style="opacity:1" fill="#5b441c" d="M 81.5,91.5 C 81.8777,102.907 82.8777,114.24 84.5,125.5C 83.5093,131.979 83.176,138.646 83.5,145.5C 82.8333,159.5 82.1667,173.5 81.5,187.5C 81.5,155.5 81.5,123.5 81.5,91.5 Z"/></g>
<g><path style="opacity:1" fill="#523e1b" d="M 148.5,141.5 C 141.5,141.5 134.5,141.5 127.5,141.5C 127.5,150.167 127.5,158.833 127.5,167.5C 126.507,158.682 126.173,149.682 126.5,140.5C 134.019,140.175 141.352,140.508 148.5,141.5 Z"/></g>
</svg>

<svg xmlns="http://www.w3.org/2000/svg" width="166" height="192" style="shape-rendering:geometricPrecision;text-rendering:geometricPrecision;image-rendering:optimizeQuality;fill-rule:evenodd;clip-rule:evenodd"><path style="opacity:1" fill="#040301" d="M-.5-.5h166v119c-7.971 40.638-32.304 64.971-73 73h-21c-41.015-8.682-65.015-33.682-72-75V-.5z"/><path style="opacity:1" fill="#e6a41c" d="M81.5 37.5c.323 6.522-.01 12.855-1 19l-5-2.5c-8.66-.5-17.327-.666-26-.5-.166 9.672 0 19.34.5 29a60.727 60.727 0 0 0 3.5 6.5c-6.667.667-13.333.667-20 0 2.524-1.883 3.858-4.383 4-7.5.994-9.486 1.327-19.152 1-29-7.852-.325-15.518.008-23 1-4.624.451-8.457 2.451-11.5 6a156.5 156.5 0 0 1 0-25c2.703 3.434 6.203 5.434 10.5 6 7.816.992 15.816 1.326 24 1 .327-10.18-.006-20.18-1-30-.298-2.765-1.298-5.265-3-7.5a90.5 90.5 0 0 1 19 0 25.709 25.709 0 0 0-3.5 7.5c-.5 9.994-.666 19.994-.5 30 7.674.166 15.34 0 23-.5a26.374 26.374 0 0 0 9-3.5z"/><path style="opacity:1" fill="#e6a51c" d="M83.5 3.5h78v86h-78v-86z"/><path style="opacity:1" fill="#211b11" d="M37.5 11.5c.994 9.82 1.327 19.82 1 30-8.184.326-16.184-.008-24-1h23v-29z"/><path style="opacity:1" fill="#070502" d="M112.5 16.5c3.244 1.571 5.911 3.905 8 7l-8 9c3.364 3.2 6.864 6.2 10.5 9a108.78 108.78 0 0 0 8.5-9 74.78 74.78 0 0 0-7-7.5c2.181-3.862 5.181-6.529 9-8a708.655 708.655 0 0 1 7 6.5c.758-1.311 1.758-1.811 3-1.5l6 6c-2.493 1.583-2.326 3.083.5 4.5.835 4.803 1.835 9.47 3 14-1.133 1.711-2.633 2.211-4.5 1.5a56.949 56.949 0 0 0-9.5-8.5 110.48 110.48 0 0 0-8.5 9 371.306 371.306 0 0 1 16.5 16c.178 5.653-2.322 7.486-7.5 5.5a109.41 109.41 0 0 0-16-14.5 350.154 350.154 0 0 0-16 15.5c-7.64-.582-8.808-3.749-3.5-9.5L116.5 49a70.56 70.56 0 0 0-10.5-9.5l-8 8c-3.39-1.889-5.89-4.556-7.5-8a59.702 59.702 0 0 1 5-9 7.253 7.253 0 0 0-2-2.5 38.9 38.9 0 0 0 5-5.5c4.934-.785 9.601-2.785 14-6z"/><path style="opacity:1" fill="#826122" d="M80.5 56.5c.99-6.145 1.323-12.478 1-19 .709 2.404 1.042 5.57 1 9.5l-1 10.5c-.607-.124-.94-.457-1-1z"/><path style="opacity:1" fill="#533f1b" d="M15.5 53.5c7.482-.992 15.148-1.325 23-1 .327 9.848-.006 19.514-1 29v-28h-22z"/><path style="opacity:1" fill="#826122" d="M130.5 91.5c-6.19-.323-12.19.01-18 1-.543-.06-.876-.393-1-1l10-1c3.765-.045 6.765.289 9 1z"/><path style="opacity:1" fill="#e4a31c" d="M81.5 91.5v96c-38.725-2.283-63.892-21.95-75.5-59a183.62 183.62 0 0 1-2.5-38c26.172-.331 52.172.002 78 1zM130.5 91.5a63.502 63.502 0 0 0-3.5 10c-.5 9.327-.666 18.661-.5 28 8.34.166 16.673 0 25-.5 3.566-.7 6.4-2.533 8.5-5.5-.894 6.189-2.727 12.189-5.5 18-1.826.42-3.826.42-6 0-7.148-.992-14.481-1.325-22-1-.327 9.182.007 18.182 1 27 .486 2.307.486 4.473 0 6.5-5.387 3.53-11.054 6.197-17 8a30.382 30.382 0 0 0 4.5-11.5c.5-9.661.666-19.328.5-29-8.673-.166-17.34 0-26 .5a26.536 26.536 0 0 0-6 3.5c-.324-6.854.01-13.521 1-20 2.027 1.68 4.36 2.847 7 3.5 7.993.5 15.993.666 24 .5.166-10.339 0-20.672-.5-31a24.017 24.017 0 0 0-2.5-6c5.81-.99 11.81-1.323 18-1z"/><path style="opacity:1" fill="#070502" d="M35.5 100.5c3.244 1.571 5.91 3.905 8 7a64.253 64.253 0 0 1-6.5 7c-.667 1-.667 2 0 3a96.019 96.019 0 0 0 8.5 8 57.484 57.484 0 0 0 9-9l-7-8a74.06 74.06 0 0 1 7-7.5c3.866.821 7.032 2.987 9.5 6.5.423-1.456 1.256-1.956 2.5-1.5l6 6c-2.528 1.316-2.528 2.483 0 3.5 6.85 19 3.35 21.333-10.5 7a40.471 40.471 0 0 0-8.5 10 371.04 371.04 0 0 1 16.5 16c.621 5.042-1.545 6.876-6.5 5.5a349.58 349.58 0 0 0-17-14.5 350.367 350.367 0 0 0-16 15.5c-3.7.823-6.032-.677-7-4.5a131.955 131.955 0 0 1 16-17.5 70.607 70.607 0 0 0-10.5-9.5l-8 8a29.97 29.97 0 0 0-7-6c.32-3.998 1.82-7.665 4.5-11a7.248 7.248 0 0 0-2-2.5 38.91 38.91 0 0 0 5-5.5c4.987-.815 9.654-2.815 14-6z"/><path style="opacity:1" fill="#fdfdfd" d="M-.5 116.5c6.985 41.318 30.985 66.318 72 75h-72v-75z"/><path style="opacity:1" fill="#fcfcfc" d="M165.5 118.5v73h-73c40.696-8.029 65.029-32.362 73-73z"/><path style="opacity:1" fill="#5b441c" d="M81.5 91.5a310.23 310.23 0 0 0 3 34c-.99 6.479-1.324 13.146-1 20l-2 42v-96z"/><path style="opacity:1" fill="#523e1b" d="M148.5 141.5h-21v26c-.993-8.818-1.327-17.818-1-27 7.519-.325 14.852.008 22 1z"/></svg>
